X:23
T:Mason's Q.S.
S:American Veteran Fifer, #23
C:By John B. Mason, Drum Major 154th O.V.I.
M:6/8
L:1/8
Q:1/8=300
K:D 
%%MIDI program 72
%%MIDI transpose 8
%%MIDI ratio 3 1
|: A | E2A c2A | d2B G2G | A2B c2d | e2f d2d |
e2f gfe | d2B G2A | e2e dcB | A3 A2 :|
|: a | a2e c2A | B2c e2a | a2e c2d | e2f d2d |
e2f gfe | d2B G2B | efe dcB | A3 A2 :|


